Newaita-dark/apps/256/password-manager.svg

<?xml version="1.0" encoding="UTF-8"?>
<svg xmlns="http://www.w3.org/2000/svg" xmlns:xlink="http://www.w3.org/1999/xlink" width="256pt" height="256pt" viewBox="0 0 256 256" version="1.1">
<defs>
<radialGradient id="radial0" gradientUnits="userSpaceOnUse" cx="450.908936" cy="189.579361" fx="450.908936" fy="189.579361" r="21.166656" gradientTransform="matrix(0.00000139336,-0.62506,-1.125108,-0.000000812309,342.95478,508.762635)">
<stop offset="0" style="stop-color:rgb(0%,0%,0%);stop-opacity:0.313725;"/>
<stop offset="0.222222" style="stop-color:rgb(0%,0%,0%);stop-opacity:0.27451;"/>
<stop offset="1" style="stop-color:rgb(0%,0%,0%);stop-opacity:0;"/>
</radialGradient>
<radialGradient id="radial1" gradientUnits="userSpaceOnUse" cx="450.908936" cy="189.579361" fx="450.908936" fy="189.579361" r="21.166656" gradientTransform="matrix(-0.00000139336,0.62506,1.125108,0.000000812309,-88.930499,-60.219856)">
<stop offset="0" style="stop-color:rgb(0%,0%,0%);stop-opacity:0.313725;"/>
<stop offset="0.222222" style="stop-color:rgb(0%,0%,0%);stop-opacity:0.27451;"/>
<stop offset="1" style="stop-color:rgb(0%,0%,0%);stop-opacity:0;"/>
</radialGradient>
<radialGradient id="radial2" gradientUnits="userSpaceOnUse" cx="450.908936" cy="189.579361" fx="450.908936" fy="189.579361" r="21.166656" gradientTransform="matrix(-0.00000139336,-0.62506,1.125108,-0.000000812309,-88.930499,508.762635)">
<stop offset="0" style="stop-color:rgb(0%,0%,0%);stop-opacity:0.313725;"/>
<stop offset="0.222222" style="stop-color:rgb(0%,0%,0%);stop-opacity:0.27451;"/>
<stop offset="1" style="stop-color:rgb(0%,0%,0%);stop-opacity:0;"/>
</radialGradient>
<radialGradient id="radial3" gradientUnits="userSpaceOnUse" cx="450.908936" cy="189.579361" fx="450.908936" fy="189.579361" r="21.166656" gradientTransform="matrix(0.00000139336,0.62506,-1.125108,0.000000812309,342.954765,-60.21986)">
<stop offset="0" style="stop-color:rgb(0%,0%,0%);stop-opacity:0.313725;"/>
<stop offset="0.222222" style="stop-color:rgb(0%,0%,0%);stop-opacity:0.27451;"/>
<stop offset="1" style="stop-color:rgb(0%,0%,0%);stop-opacity:0;"/>
</radialGradient>
<linearGradient id="linear0" gradientUnits="userSpaceOnUse" x1="255.323059" y1="233.5" x2="255.323044" y2="254.666656" gradientTransform="matrix(0.10688,0,0,0.500048,99.723089,107.510269)">
<stop offset="0" style="stop-color:rgb(0%,0%,0%);stop-opacity:0.27451;"/>
<stop offset="1" style="stop-color:rgb(0%,0%,0%);stop-opacity:0;"/>
</linearGradient>
<linearGradient id="linear1" gradientUnits="userSpaceOnUse" x1="960" y1="1695.118164" x2="960" y2="175.118134" gradientTransform="matrix(0.132304,0,0,0.132304,0,0)">
<stop offset="0" style="stop-color:rgb(74.117647%,74.117647%,74.117647%);stop-opacity:1;"/>
<stop offset="1" style="stop-color:rgb(87.843137%,87.843137%,87.843137%);stop-opacity:1;"/>
</linearGradient>
</defs>
<g id="surface1">
<path style=" stroke:none;fill-rule:nonzero;fill:url(#radial0);" d="M 132.304688 224.269531 L 153.472656 224.269531 L 153.472656 213.6875 L 132.304688 213.6875 Z M 132.304688 224.269531 "/>
<path style=" stroke:none;fill-rule:nonzero;fill:url(#radial1);" d="M 121.71875 224.269531 L 100.550781 224.269531 L 100.550781 234.855469 L 121.71875 234.855469 Z M 121.71875 224.269531 "/>
<path style=" stroke:none;fill-rule:nonzero;fill:url(#radial2);" d="M 121.71875 224.269531 L 100.550781 224.269531 L 100.550781 213.6875 L 121.71875 213.6875 Z M 121.71875 224.269531 "/>
<path style=" stroke:none;fill-rule:nonzero;fill:url(#radial3);" d="M 132.304688 224.269531 L 153.472656 224.269531 L 153.472656 234.855469 L 132.304688 234.855469 Z M 132.304688 224.269531 "/>
<path style=" stroke:none;fill-rule:nonzero;fill:url(#linear0);" d="M 121.71875 221.625 L 132.304688 221.625 L 132.304688 234.855469 L 121.71875 234.855469 Z M 121.71875 221.625 "/>
<path style=" stroke:none;fill-rule:nonzero;fill:url(#linear1);" d="M 127.011719 23.167969 C 121.148438 23.167969 116.429688 27.890625 116.429688 33.753906 L 116.429688 86.675781 L 105.84375 86.675781 C 100.890625 86.675781 96.753906 90.042969 95.585938 94.625 C 98.363281 94.792969 100.550781 97.082031 100.550781 99.90625 C 100.550781 102.726562 98.363281 105.019531 95.585938 105.1875 C 96.753906 109.765625 100.890625 113.136719 105.84375 113.136719 L 116.429688 113.136719 L 116.429688 130.183594 C 95.167969 134.972656 79.382812 153.894531 79.382812 176.640625 C 79.382812 203.027344 100.625 224.269531 127.011719 224.269531 C 153.398438 224.269531 174.640625 203.027344 174.640625 176.640625 C 174.640625 153.894531 158.855469 134.972656 137.597656 130.183594 L 137.597656 70.796875 L 148.179688 70.796875 C 153.132812 70.796875 157.269531 67.429688 158.4375 62.847656 C 155.660156 62.679688 153.472656 60.390625 153.472656 57.566406 C 153.472656 54.746094 155.660156 52.457031 158.4375 52.285156 C 157.273438 47.707031 153.132812 44.335938 148.179688 44.335938 L 137.597656 44.335938 L 137.597656 33.753906 C 137.597656 27.890625 132.875 23.167969 127.011719 23.167969 Z M 126.632812 150.179688 L 127.390625 150.179688 C 141.839844 150.179688 153.472656 161.492188 153.472656 175.542969 L 153.472656 177.742188 C 153.472656 191.792969 141.839844 203.101562 127.390625 203.101562 L 126.632812 203.101562 C 112.183594 203.101562 100.550781 191.792969 100.550781 177.742188 L 100.550781 175.542969 C 100.550781 161.492188 112.183594 150.179688 126.632812 150.179688 Z M 126.632812 150.179688 "/>
<path style=" stroke:none;fill-rule:nonzero;fill:rgb(100%,100%,100%);fill-opacity:0.392157;" d="M 127.011719 23.167969 C 121.148438 23.167969 116.429688 27.890625 116.429688 33.753906 L 116.429688 35.074219 C 116.429688 29.210938 121.148438 24.492188 127.011719 24.492188 C 132.875 24.492188 137.597656 29.210938 137.597656 35.074219 L 137.597656 33.753906 C 137.597656 27.890625 132.875 23.167969 127.011719 23.167969 Z M 137.597656 44.335938 L 137.597656 45.660156 L 148.179688 45.660156 C 152.660156 45.660156 156.472656 48.414062 158.023438 52.328125 C 158.160156 52.3125 158.296875 52.296875 158.4375 52.285156 C 157.273438 47.707031 153.132812 44.335938 148.179688 44.335938 Z M 153.515625 58.230469 C 153.488281 58.445312 153.472656 58.667969 153.472656 58.890625 C 153.472656 61.570312 155.445312 63.769531 158.023438 64.128906 C 158.1875 63.714844 158.324219 63.289062 158.4375 62.847656 C 155.878906 62.695312 153.824219 60.738281 153.515625 58.230469 Z M 105.84375 86.675781 C 100.890625 86.675781 96.753906 90.042969 95.585938 94.625 C 95.726562 94.632812 95.867188 94.648438 96.003906 94.667969 C 97.554688 90.753906 101.363281 87.996094 105.84375 87.996094 L 116.429688 87.996094 L 116.429688 86.675781 Z M 100.507812 100.566406 C 100.199219 103.078125 98.144531 105.03125 95.585938 105.1875 C 95.699219 105.625 95.839844 106.050781 96.003906 106.464844 C 98.578125 106.105469 100.550781 103.90625 100.550781 101.226562 C 100.550781 101.003906 100.535156 100.785156 100.507812 100.566406 Z M 116.429688 130.183594 C 95.167969 134.972656 79.382812 153.894531 79.382812 176.640625 C 79.382812 176.890625 79.386719 177.140625 79.390625 177.386719 C 79.652344 154.898438 95.347656 136.253906 116.429688 131.507812 Z M 137.597656 130.183594 L 137.597656 131.507812 C 158.675781 136.253906 174.371094 154.898438 174.636719 177.386719 C 174.640625 177.140625 174.640625 176.890625 174.640625 176.640625 C 174.640625 153.894531 158.855469 134.972656 137.597656 130.183594 Z M 100.550781 177.742188 L 100.550781 179.066406 C 100.550781 193.113281 112.183594 204.425781 126.632812 204.425781 L 127.390625 204.425781 C 141.839844 204.425781 153.472656 193.113281 153.472656 179.066406 L 153.472656 177.742188 C 153.472656 191.792969 141.839844 203.101562 127.390625 203.101562 L 126.632812 203.101562 C 112.183594 203.101562 100.550781 191.792969 100.550781 177.742188 Z M 100.550781 177.742188 "/>
<path style=" stroke:none;fill-rule:nonzero;fill:rgb(1.568628%,1.568628%,1.568628%);fill-opacity:0.235294;" d="M 158.023438 51.007812 C 155.445312 51.367188 153.472656 53.566406 153.472656 56.246094 C 153.472656 56.46875 153.488281 56.691406 153.515625 56.90625 C 153.824219 54.394531 155.878906 52.441406 158.4375 52.285156 C 158.324219 51.847656 158.1875 51.421875 158.023438 51.007812 Z M 158.023438 62.804688 C 156.472656 66.71875 152.660156 69.476562 148.179688 69.476562 L 137.597656 69.476562 L 137.597656 70.796875 L 148.179688 70.796875 C 153.132812 70.796875 157.269531 67.429688 158.4375 62.847656 C 158.296875 62.839844 158.160156 62.824219 158.023438 62.804688 Z M 96.003906 93.34375 C 95.839844 93.757812 95.699219 94.1875 95.585938 94.625 C 98.144531 94.78125 100.199219 96.734375 100.507812 99.242188 C 100.535156 99.027344 100.550781 98.804688 100.550781 98.582031 C 100.550781 95.902344 98.578125 93.703125 96.003906 93.34375 Z M 96.003906 105.144531 C 95.867188 105.164062 95.726562 105.179688 95.585938 105.1875 C 96.753906 109.765625 100.890625 113.136719 105.84375 113.136719 L 116.429688 113.136719 L 116.429688 111.8125 L 105.84375 111.8125 C 101.363281 111.8125 97.554688 109.058594 96.003906 105.144531 Z M 126.632812 148.859375 C 112.183594 148.859375 100.550781 160.167969 100.550781 174.21875 L 100.550781 175.542969 C 100.550781 161.492188 112.183594 150.179688 126.632812 150.179688 L 127.390625 150.179688 C 141.839844 150.179688 153.472656 161.492188 153.472656 175.542969 L 153.472656 174.21875 C 153.472656 160.167969 141.839844 148.859375 127.390625 148.859375 Z M 79.390625 176.066406 C 79.386719 176.257812 79.382812 176.449219 79.382812 176.640625 C 79.382812 203.027344 100.625 224.269531 127.011719 224.269531 C 153.398438 224.269531 174.640625 203.027344 174.640625 176.640625 C 174.640625 176.449219 174.636719 176.257812 174.636719 176.066406 C 174.238281 202.105469 153.148438 222.949219 127.011719 222.949219 C 100.875 222.949219 79.785156 202.105469 79.390625 176.066406 Z M 79.390625 176.066406 "/>
<path style=" stroke:none;fill-rule:nonzero;fill:rgb(12.941177%,12.941177%,12.941177%);fill-opacity:1;" d="M 127.011719 22.417969 C 120.746094 22.417969 115.675781 27.488281 115.675781 33.753906 L 115.675781 85.925781 L 105.84375 85.925781 C 100.550781 85.925781 96.109375 89.53125 94.859375 94.4375 C 94.804688 94.65625 94.851562 94.886719 94.980469 95.066406 C 95.113281 95.246094 95.320312 95.359375 95.542969 95.371094 C 97.933594 95.519531 99.800781 97.472656 99.800781 99.90625 C 99.800781 102.339844 97.933594 104.292969 95.542969 104.4375 C 95.320312 104.453125 95.113281 104.5625 94.980469 104.746094 C 94.851562 104.925781 94.804688 105.15625 94.859375 105.371094 C 96.109375 110.277344 100.550781 113.886719 105.84375 113.886719 L 115.675781 113.886719 L 115.675781 129.597656 C 94.382812 134.675781 78.632812 153.757812 78.632812 176.640625 C 78.632812 203.429688 100.222656 225.019531 127.011719 225.019531 C 153.800781 225.019531 175.390625 203.429688 175.390625 176.640625 C 175.390625 153.757812 159.644531 134.675781 138.347656 129.597656 L 138.347656 71.546875 L 148.179688 71.546875 C 153.472656 71.546875 157.914062 67.941406 159.164062 63.035156 C 159.21875 62.816406 159.175781 62.585938 159.042969 62.40625 C 158.910156 62.226562 158.707031 62.113281 158.480469 62.101562 C 156.089844 61.957031 154.222656 60 154.222656 57.566406 C 154.222656 55.132812 156.089844 53.179688 158.484375 53.035156 C 158.707031 53.023438 158.910156 52.910156 159.042969 52.730469 C 159.175781 52.546875 159.21875 52.320312 159.164062 52.101562 C 157.914062 47.195312 153.472656 43.585938 148.179688 43.585938 L 138.347656 43.585938 L 138.347656 33.753906 C 138.347656 27.488281 133.277344 22.417969 127.011719 22.417969 Z M 127.011719 23.917969 C 132.472656 23.917969 136.847656 28.292969 136.847656 33.753906 L 136.847656 44.335938 C 136.847656 44.75 137.183594 45.085938 137.597656 45.085938 L 148.179688 45.085938 C 152.503906 45.085938 156.144531 47.835938 157.472656 51.683594 C 154.757812 52.277344 152.722656 54.679688 152.722656 57.566406 C 152.722656 60.457031 154.757812 62.859375 157.472656 63.453125 C 156.140625 67.300781 152.503906 70.046875 148.179688 70.046875 L 137.597656 70.046875 C 137.183594 70.046875 136.847656 70.382812 136.847656 70.796875 L 136.847656 130.183594 C 136.847656 130.535156 137.089844 130.839844 137.429688 130.914062 C 158.355469 135.628906 173.890625 154.242188 173.890625 176.640625 C 173.890625 202.625 152.996094 223.519531 127.011719 223.519531 C 101.027344 223.519531 80.132812 202.625 80.132812 176.640625 C 80.132812 154.242188 95.667969 135.628906 116.59375 130.914062 C 116.933594 130.839844 117.179688 130.535156 117.179688 130.183594 L 117.179688 113.136719 C 117.179688 112.722656 116.84375 112.386719 116.429688 112.386719 L 105.84375 112.386719 C 101.519531 112.386719 97.882812 109.636719 96.550781 105.789062 C 99.265625 105.195312 101.300781 102.792969 101.300781 99.90625 C 101.300781 97.015625 99.265625 94.613281 96.550781 94.019531 C 97.882812 90.171875 101.519531 87.425781 105.84375 87.425781 L 116.429688 87.425781 C 116.84375 87.425781 117.179688 87.089844 117.179688 86.675781 L 117.179688 33.753906 C 117.179688 28.292969 121.550781 23.917969 127.011719 23.917969 Z M 126.632812 149.429688 C 111.792969 149.429688 99.800781 161.078125 99.800781 175.542969 L 99.800781 177.742188 C 99.800781 192.207031 111.792969 203.851562 126.632812 203.851562 L 127.390625 203.851562 C 142.230469 203.851562 154.222656 192.207031 154.222656 177.742188 L 154.222656 175.542969 C 154.222656 161.078125 142.230469 149.429688 127.390625 149.429688 Z M 126.632812 150.929688 L 127.390625 150.929688 C 141.449219 150.929688 152.722656 161.90625 152.722656 175.542969 L 152.722656 177.742188 C 152.722656 191.378906 141.449219 202.351562 127.390625 202.351562 L 126.632812 202.351562 C 112.574219 202.351562 101.300781 191.378906 101.300781 177.742188 L 101.300781 175.542969 C 101.300781 161.90625 112.574219 150.929688 126.632812 150.929688 Z M 126.632812 150.929688 "/>
</g>
</svg>

<svg xmlns="http://www.w3.org/2000/svg" width="256pt" height="256pt" viewBox="0 0 256 256"><defs><radialGradient id="a" gradientUnits="userSpaceOnUse" cx="450.909" cy="189.579" fx="450.909" fy="189.579" r="21.167" gradientTransform="matrix(0 -.62506 -1.1251 0 342.955 508.763)"><stop offset="0" stop-opacity=".314"/><stop offset=".222" stop-opacity=".275"/><stop offset="1" stop-opacity="0"/></radialGradient><radialGradient id="b" gradientUnits="userSpaceOnUse" cx="450.909" cy="189.579" fx="450.909" fy="189.579" r="21.167" gradientTransform="matrix(0 .62506 1.1251 0 -88.93 -60.22)"><stop offset="0" stop-opacity=".314"/><stop offset=".222" stop-opacity=".275"/><stop offset="1" stop-opacity="0"/></radialGradient><radialGradient id="c" gradientUnits="userSpaceOnUse" cx="450.909" cy="189.579" fx="450.909" fy="189.579" r="21.167" gradientTransform="matrix(0 -.62506 1.1251 0 -88.93 508.763)"><stop offset="0" stop-opacity=".314"/><stop offset=".222" stop-opacity=".275"/><stop offset="1" stop-opacity="0"/></radialGradient><radialGradient id="d" gradientUnits="userSpaceOnUse" cx="450.909" cy="189.579" fx="450.909" fy="189.579" r="21.167" gradientTransform="matrix(0 .62506 -1.1251 0 342.955 -60.22)"><stop offset="0" stop-opacity=".314"/><stop offset=".222" stop-opacity=".275"/><stop offset="1" stop-opacity="0"/></radialGradient><linearGradient id="e" gradientUnits="userSpaceOnUse" x1="255.323" y1="233.5" x2="255.323" y2="254.667" gradientTransform="matrix(.10688 0 0 .50005 99.723 107.51)"><stop offset="0" stop-opacity=".275"/><stop offset="1" stop-opacity="0"/></linearGradient><linearGradient id="f" gradientUnits="userSpaceOnUse" x1="960" y1="1695.118" x2="960" y2="175.118" gradientTransform="scale(.1323)"><stop offset="0" stop-color="#bdbdbd"/><stop offset="1" stop-color="#e0e0e0"/></linearGradient></defs><path d="M132.305 224.27h21.168v-10.583h-21.168zm0 0" fill="url(#a)"/><path d="M121.719 224.27H100.55v10.585h21.168zm0 0" fill="url(#b)"/><path d="M121.719 224.27H100.55v-10.583h21.168zm0 0" fill="url(#c)"/><path d="M132.305 224.27h21.168v10.585h-21.168zm0 0" fill="url(#d)"/><path d="M121.719 221.625h10.586v13.23h-10.586zm0 0" fill="url(#e)"/><path d="M127.012 23.168a10.561 10.561 0 0 0-10.582 10.586v52.922h-10.586c-4.953 0-9.09 3.367-10.258 7.949a5.278 5.278 0 0 1 4.965 5.281 5.28 5.28 0 0 1-4.965 5.281 10.567 10.567 0 0 0 10.258 7.95h10.586v17.047c-21.262 4.789-37.047 23.71-37.047 46.457 0 26.386 21.242 47.629 47.629 47.629 26.386 0 47.629-21.243 47.629-47.63 0-22.745-15.786-41.667-37.043-46.456V70.797h10.582c4.953 0 9.09-3.367 10.257-7.95a5.278 5.278 0 0 1-4.964-5.28c0-2.82 2.187-5.11 4.964-5.282a10.564 10.564 0 0 0-10.257-7.95h-10.582V33.755a10.564 10.564 0 0 0-10.586-10.586zm-.38 127.012h.759c14.449 0 26.082 11.312 26.082 25.363v2.2c0 14.05-11.633 25.359-26.082 25.359h-.758c-14.45 0-26.082-11.309-26.082-25.36v-2.199c0-14.05 11.633-25.363 26.082-25.363zm0 0" fill="url(#f)"/><path d="M127.012 23.168a10.561 10.561 0 0 0-10.582 10.586v1.32a10.558 10.558 0 0 1 10.582-10.582 10.561 10.561 0 0 1 10.586 10.582v-1.32a10.564 10.564 0 0 0-10.586-10.586zm10.586 21.168v1.324h10.582c4.48 0 8.293 2.754 9.843 6.668.137-.016.274-.031.415-.043a10.564 10.564 0 0 0-10.258-7.95zm15.918 13.894a5.278 5.278 0 0 0 4.508 5.898c.163-.413.3-.839.413-1.28a5.271 5.271 0 0 1-4.921-4.618zm-47.672 28.446c-4.953 0-9.09 3.367-10.258 7.949.14.008.281.023.418.043a10.56 10.56 0 0 1 9.84-6.672h10.586v-1.32zm-5.336 13.89a5.275 5.275 0 0 1-4.922 4.621c.113.438.254.864.418 1.278a5.278 5.278 0 0 0 4.504-5.899zm15.922 29.618c-21.262 4.789-37.047 23.71-37.047 46.457 0 .25.004.5.008.746.261-22.489 15.957-41.133 37.039-45.88zm21.168 0v1.324c21.078 4.746 36.773 23.39 37.039 45.879.004-.246.004-.496.004-.746 0-22.746-15.786-41.668-37.043-46.457zm-37.047 47.558v1.324c0 14.047 11.633 25.36 26.082 25.36h.758c14.449 0 26.082-11.313 26.082-25.36v-1.324c0 14.051-11.633 25.36-26.082 25.36h-.758c-14.45 0-26.082-11.309-26.082-25.36zm0 0" fill="#fff" fill-opacity=".392"/><path d="M158.023 51.008a5.278 5.278 0 0 0-4.507 5.898 5.275 5.275 0 0 1 4.922-4.62c-.114-.438-.25-.864-.415-1.278zm0 11.797a10.566 10.566 0 0 1-9.843 6.672h-10.582v1.32h10.582c4.953 0 9.09-3.367 10.257-7.95a4.792 4.792 0 0 1-.414-.042zm-62.02 30.539a10.91 10.91 0 0 0-.417 1.281 5.275 5.275 0 0 1 4.922 4.617 5.278 5.278 0 0 0-4.504-5.898zm0 11.8c-.136.02-.276.036-.417.043a10.567 10.567 0 0 0 10.258 7.95h10.586v-1.325h-10.586c-4.48 0-8.29-2.753-9.84-6.667zm30.63 43.715c-14.45 0-26.082 11.309-26.082 25.36v1.324c0-14.05 11.633-25.363 26.082-25.363h.758c14.449 0 26.082 11.312 26.082 25.363v-1.324c0-14.051-11.633-25.36-26.082-25.36zM79.39 176.066c-.004.192-.008.383-.008.575 0 26.386 21.242 47.629 47.629 47.629 26.386 0 47.629-21.243 47.629-47.63 0-.19-.004-.382-.004-.574-.399 26.04-21.489 46.883-47.625 46.883-26.137 0-47.227-20.844-47.621-46.883zm0 0" fill="#040404" fill-opacity=".235"/><path d="M127.012 22.418a11.33 11.33 0 0 0-11.336 11.336v52.172h-9.832a11.32 11.32 0 0 0-10.985 8.511.764.764 0 0 0 .121.63c.133.18.34.292.563.304a4.52 4.52 0 0 1 4.258 4.535 4.514 4.514 0 0 1-4.258 4.531.756.756 0 0 0-.563.31.758.758 0 0 0-.12.624 11.324 11.324 0 0 0 10.984 8.516h9.832v15.71c-21.293 5.079-37.043 24.16-37.043 47.044 0 26.789 21.59 48.379 48.379 48.379 26.789 0 48.379-21.59 48.379-48.38 0-22.882-15.746-41.964-37.043-47.042V71.547h9.832a11.32 11.32 0 0 0 10.984-8.512.75.75 0 0 0-.684-.933 4.518 4.518 0 0 1-4.257-4.536 4.515 4.515 0 0 1 4.261-4.53.744.744 0 0 0 .559-.306.753.753 0 0 0 .121-.628 11.324 11.324 0 0 0-10.984-8.516h-9.832v-9.832a11.33 11.33 0 0 0-11.336-11.336zm0 1.5a9.8 9.8 0 0 1 9.836 9.836v10.582c0 .414.336.75.75.75h10.582a9.8 9.8 0 0 1 9.293 6.598c-2.715.593-4.75 2.996-4.75 5.882 0 2.891 2.035 5.293 4.75 5.887a9.8 9.8 0 0 1-9.293 6.594h-10.582a.75.75 0 0 0-.75.75v59.387c0 .351.242.656.582.73a46.763 46.763 0 0 1 36.46 45.727 46.76 46.76 0 0 1-46.878 46.879 46.76 46.76 0 0 1-46.88-46.88 46.763 46.763 0 0 1 36.462-45.726.749.749 0 0 0 .586-.73v-17.047a.75.75 0 0 0-.75-.75h-10.586a9.803 9.803 0 0 1-9.293-6.598c2.715-.594 4.75-2.996 4.75-5.883 0-2.89-2.035-5.293-4.75-5.886a9.8 9.8 0 0 1 9.293-6.594h10.586a.75.75 0 0 0 .75-.75V33.754a9.796 9.796 0 0 1 9.832-9.836zm-.38 125.512c-14.839 0-26.831 11.648-26.831 26.113v2.2c0 14.464 11.992 26.109 26.832 26.109h.758c14.84 0 26.832-11.645 26.832-26.11v-2.199c0-14.465-11.993-26.113-26.832-26.113zm0 1.5h.759c14.058 0 25.332 10.976 25.332 24.613v2.2c0 13.636-11.274 24.609-25.332 24.609h-.758c-14.059 0-25.332-10.973-25.332-24.61v-2.199c0-13.637 11.273-24.613 25.332-24.613zm0 0" fill="#212121"/></svg>
